X:1
T: The Ebb Tide Hornpipe
C:
R:Reel
Q: 232
K:C
M:4/4
L:1/8
|:G2|c2 ce ga ge|ga ge ga ge|fa fd eg ec|de fd cB AG|
c2 ce ga ge|ga ge ga ge|fa fd eg ec|Bd GB c2:|
|:ef|ge ce ge ag|fa fd B2 de|fd BG DG Bd|ec GE C2 ef|
ge ce gc' eg|ag fe d2 de|fa gf ed cB|c2 c2 c2:|
